X: 1
T: Clear The Decks
M: 4/4
L: 1/8
R: reel
K: Bdor
|:B2FB dBFB|fBdB AFEF|DA,(3A,A,A,) DEFA|defb afed|
|B2FB dBFB|fB(3BBB) defb|afed BAFA|[1BdcA B2cA:|[2BdcA Bcde|
|:fB(3BBB) FB(3BBB)|bafd AFEF|DEDE ~F3A|Bdcd Bcde|
|fB(3BBB) FB(3BBB)|bafd AFEF|DEFA defb|[1 afed Bcde:|[2 BdcA B2cA|
